images/instagram.svg

<svg height="24" viewBox="0 0 24 24" width="24" xmlns="http://www.w3.org/2000/svg"><path d="m12.0000238 0c-3.25902812 0-3.66768087.01381388-4.94760845.07221326-1.2772601.05825647-2.14958291.26113-2.91287132.55779502-.78910609.30662054-1.45831722.71694047-2.12548006 1.38405569-.66711522.66716284-1.07743515 1.33637397-1.38405569 2.12548006-.29666502.76328841-.49953855 1.63561122-.55779502 2.91287132-.05839938 1.27992759-.07221326 1.68858033-.07221326 4.94760845 0 3.2589806.01381388 3.6676333.07221326 4.9475609.05825647 1.2772601.26113 2.1495828.55779502 2.9128713.30662054.7891061.71694047 1.4583172 1.38405569 2.12548.66716284.6671153 1.33637397 1.0774352 2.12548006 1.3841033.76328841.2966175 1.63561122.499491 2.91287132.5577474 1.27992759.0583994 1.68858033.0722133 4.94760845.0722133 3.2589806 0 3.6676333-.0138139 4.9475609-.0722133 1.2772601-.0582564 2.1495828-.2611299 2.9128713-.5577474.7891061-.3066681 1.4583172-.716988 2.12548-1.3841033.6671153-.6671628 1.0774352-1.3363739 1.3841033-2.12548.2966175-.7632885.499491-1.6356112.5577474-2.9128713.0583994-1.2799277.0722133-1.6885803.0722133-4.9475609 0-3.25902812-.0138139-3.66768087-.0722133-4.94760845-.0582564-1.2772601-.2611299-2.14958291-.5577474-2.91287132-.3066681-.78910609-.716988-1.45831722-1.3841033-2.12548006-.6671628-.66711522-1.3363739-1.07743515-2.12548-1.38405569-.7632885-.29666502-1.6356112-.49953855-2.9128713-.55779502-1.2799277-.05839938-1.6885803-.07221326-4.9475609-.07221326zm0 2.16215831c3.2041061 0 3.5836544.01224195 4.849006.06997444 1.1699881.05335017 1.8053791.24884041 2.2282267.41317797.5601291.21768773.9598743.47772214 1.3797687.89766414.419942.41989439.6799764.81963954.8976641 1.37976862.1643376.4228477.3598278 1.05823862.413178 2.22822677.0577324 1.26535157.0699744 1.64489988.0699744 4.84905355 0 3.2041061-.012242 3.5836544-.0699744 4.849006-.0533502 1.1699881-.2488404 1.8053791-.413178 2.2282267-.2176877.5601291-.4777221.9598743-.8976641 1.3797687-.4198944.419942-.8196396.6799764-1.3797687.8976641-.4228476.1643376-1.0582386.3598278-2.2282268.413178-1.265161.0577324-1.6446616.0699744-4.8490059.0699744-3.20439184 0-3.58384489-.012242-4.84905355-.0699744-1.16998815-.0533502-1.80537908-.2488404-2.22822677-.413178-.56012908-.2176877-.95987424-.4777221-1.37976862-.8976641-.41989437-.4198944-.67997642-.8196396-.89766414-1.3797687-.16433756-.4228476-.3598278-1.0582386-.41317797-2.2282268-.0577325-1.2653515-.06997445-1.6448998-.06997445-4.8490059 0-3.20415367.01224195-3.58370199.06997445-4.84905355.05335017-1.16998815.24884041-1.80537908.41317797-2.22822677.21768772-.56012908.47772214-.95987424.89766414-1.37976862.41989438-.419942.81963954-.67997642 1.37976862-.89766414.42284769-.16433756 1.05823862-.3598278 2.22822677-.41317797 1.26535156-.0577325 1.64489988-.06997445 4.84905355-.06997445zm0 13.83784179c-2.20917311 0-4.0000238-1.7908508-4.0000238-3.9999763 0-2.20917311 1.79085069-4.0000238 4.0000238-4.0000238 2.2091255 0 3.9999763 1.79085069 3.9999763 4.0000238 0 2.2091255-1.7908508 3.9999763-3.9999763 3.9999763zm0-10.16215839c-3.40331175 0-6.1621821 2.75887035-6.1621821 6.16218209 0 3.4032641 2.75887035 6.1621345 6.1621821 6.1621345 3.4032641 0 6.1621345-2.7588704 6.1621345-6.1621345 0-3.40331175-2.7588704-6.1621821-6.1621345-6.16218209zm7.8456181-.24345776c0-.79529853-.6447273-1.44002572-1.4400258-1.44002572-.795251 0-1.4399781.64472719-1.4399781 1.44002572 0 .79529852.6447271 1.43997809 1.4399781 1.43997809.7952985 0 1.4400258-.64467957 1.4400258-1.43997809z" fill="#2a2a2a" fill-rule="evenodd"/></svg>

<?xml version="1.0" encoding="UTF-8"?>
<svg width="24px" height="24px" viewBox="0 0 24 24" version="1.1" xmlns="http://www.w3.org/2000/svg" xmlns:xlink="http://www.w3.org/1999/xlink">
    <!-- Generator: Sketch 52 (66869) - http://www.bohemiancoding.com/sketch -->
    <title>instagram copy</title>
    <desc>Created with Sketch.</desc>
    <g id="Symbols" stroke="none" stroke-width="1" fill="none" fill-rule="evenodd">
        <g id="Header" transform="translate(-997.000000, -388.000000)" fill="#2A2A2A">
            <g id="locked-elements">
                <g transform="translate(0.000000, 16.000000)">
                    <g id="insta" transform="translate(997.000000, 372.000000)">
                        <path d="M12.0000238,2.70616862e-16 C8.74099568,2.70616862e-16 8.33234293,0.013813875 7.05241535,0.072213255 C5.77515525,0.13046973 4.90283244,0.33334326 4.13954403,0.63000828 C3.35043794,0.936628815 2.68122681,1.34694875 2.01406397,2.01406397 C1.34694875,2.68122681 0.936628815,3.35043794 0.63000828,4.13954403 C0.33334326,4.90283244 0.13046973,5.77515525 0.072213255,7.05241535 C0.013813875,8.33234294 0,8.74099568 0,12.0000238 C0,15.2590044 0.013813875,15.6676571 0.072213255,16.9475847 C0.13046973,18.2248448 0.33334326,19.0971675 0.63000828,19.860456 C0.936628815,20.6495621 1.34694875,21.3187732 2.01406397,21.985936 C2.68122681,22.6530513 3.35043794,23.0633712 4.13954403,23.3700393 C4.90283244,23.6666568 5.77515525,23.8695303 7.05241535,23.9277867 C8.33234294,23.9861861 8.74099568,24 12.0000238,24 C15.2590044,24 15.6676571,23.9861861 16.9475847,23.9277867 C18.2248448,23.8695303 19.0971675,23.6666568 19.860456,23.3700393 C20.6495621,23.0633712 21.3187732,22.6530513 21.985936,21.985936 C22.6530513,21.3187732 23.0633712,20.6495621 23.3700393,19.860456 C23.6666568,19.0971675 23.8695303,18.2248448 23.9277867,16.9475847 C23.9861861,15.667657 24,15.2590044 24,12.0000238 C24,8.74099568 23.9861861,8.33234293 23.9277867,7.05241535 C23.8695303,5.77515525 23.6666568,4.90283244 23.3700393,4.13954403 C23.0633712,3.35043794 22.6530513,2.68122681 21.985936,2.01406397 C21.3187732,1.34694875 20.6495621,0.936628815 19.860456,0.63000828 C19.0971675,0.33334326 18.2248448,0.13046973 16.9475847,0.072213255 C15.667657,0.013813875 15.2590044,0 12.0000238,2.70616862e-16 Z M12.0000238,2.16215831 C15.2041299,2.16215831 15.5836782,2.17440026 16.8490298,2.23213275 C18.0190179,2.28548292 18.6544089,2.48097316 19.0772565,2.64531072 C19.6373856,2.86299845 20.0371308,3.12303286 20.4570252,3.54297486 C20.8769672,3.96286925 21.1370016,4.3626144 21.3546893,4.92274348 C21.5190269,5.34559118 21.7145171,5.9809821 21.7678673,7.15097025 C21.8255997,8.41632182 21.8378417,8.79587013 21.8378417,12.0000238 C21.8378417,15.2041299 21.8255997,15.5836782 21.7678673,16.8490298 C21.7145171,18.0190179 21.5190269,18.6544089 21.3546893,19.0772565 C21.1370016,19.6373856 20.8769672,20.0371308 20.4570252,20.4570252 C20.0371308,20.8769672 19.6373856,21.1370016 19.0772565,21.3546893 C18.6544089,21.5190269 18.0190179,21.7145171 16.8490297,21.7678673 C15.5838687,21.8255997 15.2043681,21.8378417 12.0000238,21.8378417 C8.79563196,21.8378417 8.41617891,21.8255997 7.15097025,21.7678673 C5.9809821,21.7145171 5.34559117,21.5190269 4.92274348,21.3546893 C4.3626144,21.1370016 3.96286924,20.8769672 3.54297486,20.4570252 C3.12308049,20.0371308 2.86299844,19.6373856 2.64531072,19.0772565 C2.48097316,18.6544089 2.28548292,18.0190179 2.23213275,16.8490297 C2.17440025,15.5836782 2.1621583,15.2041299 2.1621583,12.0000238 C2.1621583,8.79587013 2.17440025,8.41632181 2.23213275,7.15097025 C2.28548292,5.9809821 2.48097316,5.34559117 2.64531072,4.92274348 C2.86299844,4.3626144 3.12303286,3.96286924 3.54297486,3.54297486 C3.96286924,3.12303286 4.3626144,2.86299844 4.92274348,2.64531072 C5.34559117,2.48097316 5.9809821,2.28548292 7.15097025,2.23213275 C8.41632181,2.17440025 8.79587013,2.1621583 12.0000238,2.1621583 Z M12.0000238,16.0000001 C9.79085069,16.0000001 8,14.2091493 8,12.0000238 C8,9.79085069 9.79085069,8 12.0000238,8 C14.2091493,8 16.0000001,9.79085069 16.0000001,12.0000238 C16.0000001,14.2091493 14.2091493,16.0000001 12.0000238,16.0000001 Z M12.0000238,5.83784171 C8.59671205,5.83784171 5.8378417,8.59671206 5.8378417,12.0000238 C5.8378417,15.4032879 8.59671205,18.1621583 12.0000238,18.1621583 C15.4032879,18.1621583 18.1621583,15.4032879 18.1621583,12.0000238 C18.1621583,8.59671205 15.4032879,5.8378417 12.0000238,5.83784171 Z M19.8456419,5.59438395 C19.8456419,4.79908542 19.2009146,4.15435823 18.4056161,4.15435823 C17.6103651,4.15435823 16.965638,4.79908542 16.965638,5.59438395 C16.965638,6.38968247 17.6103651,7.03436204 18.4056161,7.03436204 C19.2009146,7.03436204 19.8456419,6.38968247 19.8456419,5.59438395 Z" id="instagram-copy"></path>
                    </g>
                </g>
            </g>
        </g>
    </g>
</svg>
